X:690
T:Adagio
T:from Harpsichord concerto in C minor
C:Antonio Vivaldi, arr. Johann Sebastian Bach
O:Italy
F:http://abc.musicaviva.com/tunes/vivaldi-antonio/vivaldi-bach-adagio-cm.abc
V:1 Program 1 6 %Harpsichord
V:2 Program 1 6 bass %Harpsichord
M:C
L:1/16
Q:1/4=42
K:Cm
V:1
c6gc=B4 z2G2|f6_ag edc2 z2a2|a4-agab g2ba gdeB|
V:2
C,2E,D, C,2 z2 D,2F,E, D,2 z2|G,,2=B,,=A,, G,,2 z2 C,2E,D, C,2 z2|D,2F,E, D,2 z2 E,2G,F, E,2z2|
%
V:1
g2ba gdeB _d6cB|A2cB A=EFC _e6=dc|B2g^f g2cB c2=ag a2dc|
V:2
E,2G,F, E,2 z2 =E,2G,F, E,2 z2|F,2A,G, F,2 z2 ^F,2=A,G, F,2 z2|G,2B,=A, G,2 z2 =A,2CB, A,2 z2|
%
V:1
B6dG ^F4z2D2|c6_ed B3=AA3G|G4 _d2d2 dcc2 c2c2|
V:2
G,,2B,,=A,, G,,2 z2 =A,,2C,B,, A,,2 z2|D,,2^F,,=E,, D,,2 z2 G,,2C,2D,2D,,2|G,,2B,,_A,, G,,2 z2 =A,,2C,B,, A,,2 z2|
%
V:1
cBB2 f2bf _g4-gefg|=Ae_dc c3B B2fe =d=ABF|d2fe d=ABF _a6gf|
V:2
B,,2_D,C, B,,2 z2 E,2_G,F, E,2 z2|F,2B,,2F,2F,,2 B,,2=D,C, B,,2 z2|B,,2D,C, B,,2 z2 =B,,2D,C, B,,2 z2|
%
V:1
e2gf e=BcG e2gf e=BcG|^f4zdgf gGcd d3c|c4zde=f g4-gfga|
V:2
C,2E,D, C,2 z2 C,2E,D, C,2 z2|C,2E,D, C,2 z2 =B,,2C,2G,2G,,2|C,2E,D, C,2 z2 =B,,2D,C, B,,2 z2|
%
V:1
g4-gfga g3d e=BcG|=B,4zFED G3c D3C|C8z8|]
V:2
C,2E,D, C,2 z2 C,2E,D, C,2 z2|D,2F,E, D,2 z2 E,2F,2G,2G,,2|C,8z8|]
W:
W:
W:Most of Bach's "harpsichord concertos" are rearrangements of
W:concertos by other composers. This beautiful adagio was originally
W:from a violin concerto by Vivaldi.
W:
W:
W:  From Musica Viva - http://www.musicaviva.com
W:  the Internet center for free sheet music downloads.
